img/target.svg

<svg height="80" viewBox="0 0 80 80" width="80" xmlns="http://www.w3.org/2000/svg" xmlns:xlink="http://www.w3.org/1999/xlink"><clipPath id="a"><path clip-rule="evenodd" d="m3380.8684 873.22998h228.2363v228.23632h-228.2363z" transform="matrix(.36891583 0 0 .36891583 -1247.2558 -322.14837)"/></clipPath><path clip-path="url(#a)" d="m76.139999 40c-.127105-2.059017-.439025-4.089649-.935752-6.091888-.496735-2.00224-1.170113-3.943194-2.020134-5.822863-.850029-1.879669-1.862748-3.66717-3.03814-5.362499-1.175392-1.695332-2.494156-3.27064-3.956291-4.725926-1.462143-1.455286-3.043629-2.766636-4.744469-3.934052-1.700836-1.167417-3.493072-2.171719-5.376712-3.012904-1.883641-.841187-3.82774-1.5054373-5.832291-1.9927524-2.004551-.4873143-4.036621-.7896862-6.096211-.907116v-8.1499996h-4.139999v8.1499996c-2.047466.1337586-4.06628.450264-6.056446.9495154-1.990164.4992513-3.919327 1.173136-5.787489 2.021651-1.868162.848516-3.644955 1.857869-5.330379 3.028063-1.685423 1.170194-3.252081 2.482204-4.699973 3.936031-1.447893 1.453825-2.753484 3.025837-3.916775 4.716032-1.16329 1.690196-2.165369 3.471102-3.006236 5.342719-.840868 1.871614-1.5068564 3.803516-1.9979643 5.795709-.4911089 1.992191-.7993555 4.012283-.924738 6.06028h-8.2799997v4.169998h8.2799997c.1265459 2.047131.4357987 4.066277.9277582 6.057438.4919596 1.991161 1.1586341 3.922001 2.0000241 5.792511.841389 1.87051 1.843828 3.650318 3.007315 5.339417 1.163489 1.689098 2.469128 3.260051 3.916916 4.712856 1.44779 1.452812 3.014214 2.763885 4.699272 3.933212 1.685061 1.169327 3.461384 2.177925 5.328972 3.025787 1.867586.847863 3.796105 1.52121 5.785551 2.020058 1.989449.498848 4.007512.815094 6.054192.948723v8.150002h4.169998v-8.150002c2.05959-.117432 4.09166-.419807 6.096211-.90712 2.004551-.487312 3.948646-1.151565 5.832286-1.992752 1.883641-.841194 3.675881-1.845489 5.376713-3.012901 1.70084-1.16742 3.28233-2.478768 4.744465-3.934052s2.780907-3.030597 3.956299-4.725929c1.1754-1.695335 2.188118-3.482838 3.038147-5.362503.850029-1.879669 1.523407-3.820621 2.020134-5.822861.496727-2.002239.808639-4.032867.935745-6.09188h8v-4.150002zm-3.629997 4.169998c-.12545 1.819775-.412582 3.613671-.861381 5.381687-.4488 1.768017-1.052033 3.481671-1.809716 5.140953-.757667 1.659287-1.657577 3.237473-2.699722 4.734555-1.042137 1.497081-2.209709 2.888939-3.502727 4.175567-1.293015 1.286637-2.690632 2.447312-4.192856 3.482025-1.502224 1.034714-3.084843 1.926796-4.747864 2.676239-1.663014.749459-3.379631 1.344208-5.149849 1.784249-1.770222.44004-3.565517.718277-5.385887.834724v-13.589996h-4.16v13.580002c-1.808575-.13292-3.590969-.425385-5.347187-.877388-1.756214-.452004-3.458336-1.056351-5.10636-1.813057-1.648027-.756706-3.215759-1.65374-4.703197-2.691101-1.487442-1.037361-2.870945-2.198563-4.150511-3.483589-1.279566-1.285035-2.434854-2.673478-3.465866-4.165326-1.03101-1.491848-1.921353-3.063392-2.67103-4.714626-.749676-1.651237-1.346767-3.355919-1.791276-5.114044-.444508-1.758129-.729366-3.541752-.854573-5.350872h13.450001v-4.16h-13.450001c.124636-1.809551.408998-3.593651.853089-5.352291.44409-1.758637 1.040844-3.46385 1.790263-5.115639.749421-1.651783 1.639588-3.223873 2.6705-4.71627 1.030913-1.492396 2.186176-2.881363 3.465792-4.166903 1.279617-1.285538 2.663236-2.447203 4.150856-3.484995 1.487619-1.037792 3.055584-1.935207 4.70389-2.692246 1.648306-.757037 3.350744-1.361658 5.107317-1.813863 1.756569-.452206 3.539333-.744803 5.348293-.877793v13.580001h4.169998v-13.59c1.820721.117156 3.616287.39617 5.386704.83704 1.77042.440871 3.487144 1.036491 5.150177 1.78686 1.663036.750371 3.245571 1.643393 4.747608 2.67907 1.502033 1.035677 2.899357 2.197314 4.191967 3.484906s2.459671 2.680387 3.501182 4.178384c1.041512 1.497996 1.940682 3.077046 2.697518 4.737151.756828 1.660104 1.359123 3.3745 1.806877 5.143188.447746 1.768688.733734 3.563152.857971 5.3834h-13.720001v4.169998z" transform="matrix(.86740649 0 0 .86740649 3.495168 3.503871)"/></svg>

<?xml version="1.0" encoding="UTF-8" standalone="no"?>
<!-- Created with Inkscape (http://www.inkscape.org/) -->

<svg
   width="80"
   height="80"
   viewBox="0 0 80 80"
   version="1.1"
   id="svg1"
   inkscape:version="1.3 (0e150ed, 2023-07-21)"
   sodipodi:docname="target.svg"
   xmlns:inkscape="http://www.inkscape.org/namespaces/inkscape"
   xmlns:sodipodi="http://sodipodi.sourceforge.net/DTD/sodipodi-0.dtd"
   xmlns="http://www.w3.org/2000/svg"
   xmlns:svg="http://www.w3.org/2000/svg">
  <sodipodi:namedview
     id="namedview1"
     pagecolor="#ffffff"
     bordercolor="#666666"
     borderopacity="1.0"
     inkscape:showpageshadow="2"
     inkscape:pageopacity="0.0"
     inkscape:pagecheckerboard="0"
     inkscape:deskcolor="#d1d1d1"
     inkscape:document-units="px"
     inkscape:zoom="3.1500561"
     inkscape:cx="9.6823672"
     inkscape:cy="32.380376"
     inkscape:window-width="1392"
     inkscape:window-height="1027"
     inkscape:window-x="0"
     inkscape:window-y="25"
     inkscape:window-maximized="0"
     inkscape:current-layer="layer1" />
  <defs
     id="defs1">
    <clipPath
       clipPathUnits="userSpaceOnUse"
       id="clipPath102">
      <path
         d="M 664.8396,865.68457 H 886.82288 V 1093.9209 H 664.8396 Z"
         transform="matrix(2.184399,0,0,2.1735264,-1438.7749,-1873.6271)"
         clip-rule="evenodd"
         id="path102" />
    </clipPath>
    <clipPath
       clipPathUnits="userSpaceOnUse"
       id="clipPath96">
      <path
         d="M 2002.8915,865.68457 H 2268.646 V 1100.174 H 2002.8915 Z"
         transform="matrix(0.50620565,0,0,0.50919155,-1006.1382,-425.49927)"
         clip-rule="evenodd"
         id="path96" />
    </clipPath>
    <clipPath
       clipPathUnits="userSpaceOnUse"
       id="clipPath100">
      <path
         d="M 3380.8684,873.22998 H 3609.1047 V 1101.4663 H 3380.8684 Z"
         transform="matrix(0.36891583,0,0,0.36891583,-1247.2558,-322.14837)"
         clip-rule="evenodd"
         id="path100" />
    </clipPath>
  </defs>
  <g
     inkscape:label="Layer 1"
     inkscape:groupmode="layer"
     id="layer1">
    <path
       id="path99"
       d="M 76.139999,40 C 76.012894,37.940983 75.700974,35.910351 75.204247,33.908112 C 74.707512,31.905872 74.034134,29.964918 73.184113,28.085249 C 72.334084,26.20558 71.321365,24.418079 70.145973,22.72275 C 68.970581,21.027418 67.651817,19.45211 66.189682,17.996824 C 64.727539,16.541538 63.146053,15.230188 61.445213,14.062772 C 59.744377,12.895355 57.952141,11.891053 56.068501,11.049868 C 54.18486,10.208681 52.240761,9.5444307 50.23621,9.0571156 C 48.231659,8.5698013 46.199589,8.2674294 44.139999,8.1499996 V 0 H 40 V 8.1499996 C 37.952534,8.2837582 35.93372,8.6002636 33.943554,9.099515 C 31.95339,9.5987663 30.024227,10.272651 28.156065,11.121166 C 26.287903,11.969682 24.51111,12.979035 22.825686,14.149229 C 21.140263,15.319423 19.573605,16.631433 18.125713,18.08526 C 16.67782,19.539085 15.372229,21.111097 14.208938,22.801292 C 13.045648,24.491488 12.043569,26.272394 11.202702,28.144011 C 10.361834,30.015625 9.6958456,31.947527 9.2047377,33.93972 C 8.7136288,35.931911 8.4053822,37.952003 8.2799997,40 H 0 V 44.169998 H 8.2799997 C 8.4065456,46.217129 8.7157984,48.236275 9.2077579,50.227436 C 9.6997175,52.218597 10.366392,54.149437 11.207782,56.019947 C 12.049171,57.890457 13.05161,59.670265 14.215097,61.359364 C 15.378586,63.048462 16.684225,64.619415 18.132013,66.07222 C 19.579803,67.525032 21.146227,68.836105 22.831285,70.005432 C 24.516346,71.174759 26.292669,72.183357 28.160257,73.031219 C 30.027843,73.879082 31.956362,74.552429 33.945808,75.051277 C 35.935257,75.550125 37.95332,75.866371 40,76 V 84.150002 H 44.169998 V 76 C 46.229588,75.882568 48.261658,75.580193 50.266209,75.09288 C 52.27076,74.605568 54.214855,73.941315 56.098495,73.100128 C 57.982136,72.258934 59.774376,71.254639 61.475208,70.087227 C 63.176048,68.919807 64.757538,67.608459 66.219673,66.153175 C 67.681808,64.697891 69.00058,63.122578 70.175972,61.427246 C 71.351372,59.731911 72.36409,57.944408 73.214119,56.064743 C 74.064148,54.185074 74.737526,52.244122 75.234253,50.241882 C 75.73098,48.239643 76.042892,46.209015 76.169998,44.150002 H 84.169998 V 40 Z M 72.510002,44.169998 C 72.384552,45.989773 72.09742,47.783669 71.648621,49.551685 C 71.199821,51.319702 70.596588,53.033356 69.838905,54.692638 C 69.081238,56.351925 68.181328,57.930111 67.139183,59.427193 C 66.097046,60.924274 64.929474,62.316132 63.636456,63.60276 C 62.343441,64.889397 60.945824,66.050072 59.4436,67.084785 C 57.941376,68.119499 56.358757,69.011581 54.695736,69.761024 C 53.032722,70.510483 51.316105,71.105232 49.545887,71.545273 C 47.775665,71.985313 45.98037,72.26355 44.16,72.379997 V 58.790001 H 40 V 72.370003 C 38.191425,72.237083 36.409031,71.944618 34.652813,71.492615 C 32.896599,71.040611 31.194477,70.436264 29.546453,69.679558 C 27.898426,68.922852 26.330694,68.025818 24.843256,66.988457 C 23.355814,65.951096 21.972311,64.789894 20.692745,63.504868 C 19.413179,62.219833 18.257891,60.83139 17.226879,59.339542 C 16.195869,57.847694 15.305526,56.27615 14.555849,54.624916 C 13.806173,52.973679 13.209082,51.268997 12.764573,49.510872 C 12.320065,47.752743 12.035207,45.96912 11.91,44.16 H 25.360001 V 40 H 11.91 C 12.034636,38.190449 12.318998,36.406349 12.763089,34.647709 C 13.207179,32.889072 13.803933,31.183859 14.553352,29.53207 C 15.302773,27.880287 16.19294,26.308197 17.223852,24.8158 C 18.254765,23.323404 19.410028,21.934437 20.689644,20.648897 C 21.969261,19.363359 23.35288,18.201694 24.8405,17.163902 C 26.328119,16.12611 27.896084,15.228695 29.54439,14.471656 C 31.192696,13.714619 32.895134,13.109998 34.651707,12.657793 C 36.408276,12.205587 38.19104,11.91299 40,11.78 V 25.360001 H 44.169998 V 11.770001 C 45.990719,11.887157 47.786285,12.166171 49.556702,12.607041 C 51.327122,13.047912 53.043846,13.643532 54.706879,14.393901 C 56.369915,15.144272 57.95245,16.037294 59.454487,17.072971 C 60.95652,18.108648 62.353844,19.270285 63.646454,20.557877 C 64.939064,21.845469 66.106125,23.238264 67.147636,24.736261 C 68.189148,26.234257 69.088318,27.813307 69.845154,29.473412 C 70.601982,31.133516 71.204277,32.847912 71.652031,34.6166 C 72.099777,36.385288 72.385765,38.179752 72.510002,40 H 58.790001 V 44.169998 Z"
       style="fill:#000000;fill-opacity:1;fill-rule:nonzero;stroke:none"
       transform="matrix(0.86740649,0,0,0.86740649,3.4951675,3.5038711)"
       clip-path="url(#clipPath100)" />
  </g>
</svg>
